X:275
T:Princess Royal, Adderbury
R:hp 32
M:4/4
L:1/8
P:A(AB2)4
K:EMin
P:A
B>A|G2F2 E2B>A|G2F2 E4|e3d c2e2|d2c2 B3d|
c2B2 A2G2|F2E2 D2d2|B2AG A2F2|E4 E2||
P:B
z2|d2d2 d2ef|g2G2 G3G|c2B2 A2G2|F2E2 D4|
G2G2 A3A|B2B2 g4|g2G2 c4|e2G2 c4|
c3B A2G2|F2E2 D2d2|B2AG A2F2|E4 E2||

